src/images/nodejs.svg

<svg width="233" height="233" viewBox="0 0 233 233" fill="none" xmlns="http://www.w3.org/2000/svg">
<path d="M116.415 202.464C114.011 202.464 111.767 201.823 109.683 200.701L88.366 188.039C85.1604 186.276 86.7632 185.634 87.7248 185.314C92.0524 183.871 92.8538 183.551 97.3416 180.986C97.8224 180.666 98.4635 180.826 98.9444 181.147L115.293 190.924C115.934 191.244 116.735 191.244 117.216 190.924L181.168 153.899C181.809 153.579 182.129 152.938 182.129 152.136V78.2475C182.129 77.4461 181.809 76.805 181.168 76.4844L117.216 39.6202C116.575 39.2997 115.774 39.2997 115.293 39.6202L51.3415 76.4844C50.7004 76.805 50.3798 77.6064 50.3798 78.2475V152.136C50.3798 152.777 50.7004 153.579 51.3415 153.899L68.8119 163.997C78.2684 168.805 84.1987 163.195 84.1987 157.586V84.6587C84.1987 83.697 85.0001 82.7353 86.122 82.7353H94.2963C95.258 82.7353 96.2196 83.5367 96.2196 84.6587V157.586C96.2196 170.248 89.3276 177.621 77.3067 177.621C73.6203 177.621 70.7353 177.621 62.561 173.614L45.7317 163.997C41.5645 161.593 39 157.105 39 152.296V78.4078C39 73.5994 41.5645 69.1116 45.7317 66.7074L109.683 29.6829C113.69 27.439 119.14 27.439 123.147 29.6829L187.098 66.7074C191.265 69.1116 193.83 73.5994 193.83 78.4078V152.296C193.83 157.105 191.265 161.593 187.098 163.997L123.147 201.021C121.063 201.983 118.659 202.464 116.415 202.464ZM136.129 151.655C108.08 151.655 102.31 138.833 102.31 127.934C102.31 126.972 103.112 126.011 104.234 126.011H112.568C113.53 126.011 114.331 126.652 114.331 127.613C115.613 136.108 119.3 140.275 136.289 140.275C149.753 140.275 155.523 137.23 155.523 130.018C155.523 125.85 153.92 122.805 132.924 120.721C115.453 118.958 104.554 115.112 104.554 101.167C104.554 88.1848 115.453 80.4914 133.725 80.4914C154.241 80.4914 164.338 87.5437 165.62 102.93C165.62 103.411 165.46 103.892 165.14 104.373C164.819 104.694 164.338 105.014 163.857 105.014H155.523C154.721 105.014 153.92 104.373 153.76 103.572C151.836 94.7562 146.868 91.8712 133.725 91.8712C118.979 91.8712 117.216 97.0001 117.216 100.847C117.216 105.495 119.3 106.937 139.174 109.502C158.889 112.066 168.185 115.753 168.185 129.537C168.025 143.641 156.485 151.655 136.129 151.655Z" fill="#539E43"/>
</svg>

<svg width="233" height="233" fill="none" xmlns="http://www.w3.org/2000/svg"><path d="M116.415 202.464c-2.404 0-4.648-.641-6.732-1.763l-21.317-12.662c-3.206-1.763-1.603-2.405-.641-2.725 4.327-1.443 5.129-1.763 9.617-4.328.48-.32 1.121-.16 1.602.161l16.349 9.777c.641.32 1.442.32 1.923 0l63.952-37.025c.641-.32.961-.961.961-1.763V78.248c0-.802-.32-1.443-.961-1.764L117.216 39.62c-.641-.32-1.442-.32-1.923 0L51.341 76.484c-.64.321-.961 1.122-.961 1.764v73.888c0 .641.32 1.443.962 1.763l17.47 10.098c9.456 4.808 15.387-.802 15.387-6.411V84.659c0-.962.801-1.924 1.923-1.924h8.174c.962 0 1.924.802 1.924 1.924v72.927c0 12.662-6.892 20.035-18.913 20.035-3.687 0-6.572 0-14.746-4.007l-16.83-9.617C41.566 161.593 39 157.105 39 152.296V78.408c0-4.809 2.565-9.296 6.732-11.7l63.951-37.025c4.007-2.244 9.457-2.244 13.464 0l63.951 37.024c4.167 2.405 6.732 6.892 6.732 11.7v73.889c0 4.809-2.565 9.297-6.732 11.701l-63.951 37.024c-2.084.962-4.488 1.443-6.732 1.443zm19.714-50.809c-28.049 0-33.819-12.822-33.819-23.721 0-.962.802-1.923 1.924-1.923h8.334c.962 0 1.763.641 1.763 1.602 1.282 8.495 4.969 12.662 21.958 12.662 13.464 0 19.234-3.045 19.234-10.257 0-4.168-1.603-7.213-22.599-9.297-17.471-1.763-28.37-5.609-28.37-19.554 0-12.982 10.899-20.676 29.171-20.676 20.516 0 30.613 7.053 31.895 22.439 0 .481-.16.962-.48 1.443-.321.321-.802.641-1.283.641h-8.334c-.802 0-1.603-.641-1.763-1.442-1.924-8.816-6.892-11.7-20.035-11.7-14.746 0-16.509 5.128-16.509 8.975 0 4.648 2.084 6.09 21.958 8.655 19.715 2.564 29.011 6.251 29.011 20.035-.16 14.104-11.7 22.118-32.056 22.118z" fill="#539E43"/></svg>
